svgs/sharp-light/hard-drive.svg

<svg xmlns="http://www.w3.org/2000/svg" viewBox="0 0 512 512"><!--! Font Awesome Pro 6.6.0 by @fontawesome - https://fontawesome.com License - https://fontawesome.com/license (Commercial License) Copyright 2024 Fonticons, Inc. --><path d="M32 64l0 192 448 0 0-192L32 64zm0 224l0 160 448 0 0-160L32 288zM0 256L0 64 0 32l32 0 448 0 32 0 0 32 0 192 0 32 0 160 0 32-32 0L32 480 0 480l0-32L0 288l0-32zm320 88a24 24 0 1 1 0 48 24 24 0 1 1 0-48zm72 24a24 24 0 1 1 48 0 24 24 0 1 1 -48 0z"/></svg>

<svg xmlns="http://www.w3.org/2000/svg" viewBox="0 0 512 512"><!--! Font Awesome Pro 6.4.0 by @fontawesome - https://fontawesome.com License - https://fontawesome.com/license (Commercial License) Copyright 2023 Fonticons, Inc. --><path d="M32 64V256H480V64H32zm0 224V448H480V288H32zM0 256V64 32H32 480h32V64 256v32V448v32H480 32 0V448 288 256zm320 88a24 24 0 1 1 0 48 24 24 0 1 1 0-48zm72 24a24 24 0 1 1 48 0 24 24 0 1 1 -48 0z"/></svg>
